;START_OF_HEADER
;HEADER_VERSION:0.1
;FLAVOR:Griffin
;GENERATOR.NAME:Cura_SteamEngine
;GENERATOR.VERSION:4.8.0
;GENERATOR.BUILD_DATE:2020-11-10
;TARGET_MACHINE.NAME:Ultimaker S5
;EXTRUDER_TRAIN.0.INITIAL_TEMPERATURE:200
;EXTRUDER_TRAIN.0.MATERIAL.VOLUME_USED:2654
;EXTRUDER_TRAIN.0.MATERIAL.GUID:506c9f0d-e3aa-4bd4-b2d2-23e2425b1aa9
;EXTRUDER_TRAIN.0.NOZZLE.DIAMETER:0.4
;EXTRUDER_TRAIN.0.NOZZLE.NAME:AA 0.4
;BUILD_PLATE.TYPE:glass
;BUILD_PLATE.INITIAL_TEMPERATURE:60
;BUILD_VOLUME.TEMPERATURE:28
;PRINT.TIME:2627
;PRINT.GROUPS:1
;PRINT.SIZE.MIN.X:150.443
;PRINT.SIZE.MIN.Y:106.443
;PRINT.SIZE.MIN.Z:0.2
;PRINT.SIZE.MAX.X:179.557
;PRINT.SIZE.MAX.Y:135.557
;PRINT.SIZE.MAX.Z:34
;END_OF_HEADER
;Generated with Cura_SteamEngine 4.8.0
T0
M82 ;absolute extrusion mode

G92 E0
M109 S200
G280 S1
G0 Z20.001
G1 F1500 E-6.5
;LAYER_COUNT:339
;LAYER:0
M107
M204 S625
M205 X10 Y10
G1 F600 Z2.2
G0 F2571.4 X177.388 Y128.672 Z2.2
M204 S500
M205 X5 Y5
;TYPE:SKIRT
G1 F600 Z0.2
G1 F1500 E0
G1 F1200 X176.516 Y129.926 E0.02011
G1 X176.027 Y130.519 E0.03023
G1 X175.426 Y131.171 E0.04191
G1 X174.329 Y132.188 E0.06161
G1 X173.278 Y132.992 E0.07903
G1 X172.606 Y133.426 E0.08956
G1 X171.857 Y133.85 E0.1009
G1 X170.571 Y134.459 E0.11963
G1 X169.159 Y134.962 E0.13937
G1 X167.759 Y135.306 E0.15835
G1 X166.335 Y135.509 E0.17729
G1 X165.534 Y135.556 E0.18786
G1 X164.481 Y135.557 E0.20172
G1 X163.615 Y135.504 E0.21315
G1 X162.726 Y135.393 E0.22494
G1 X161.25 Y135.08 E0.24481
G1 X159.927 Y134.657 E0.2631
G1 X159.252 Y134.383 E0.27269
G1 X158.454 Y134.01 E0.28429
G1 X157.326 Y133.387 E0.30126
G1 X156.074 Y132.516 E0.32134
G1 X155.481 Y132.027 E0.33146
G1 X154.829 Y131.426 E0.34314
G1 X153.811 Y130.329 E0.36284
G1 X153.007 Y129.276 E0.38029
G1 X152.574 Y128.605 E0.3908
G1 X152.149 Y127.854 E0.40217
G1 X151.54 Y126.569 E0.42089
G1 X151.037 Y125.156 E0.44064
G1 X150.694 Y123.759 E0.45958
G1 X150.491 Y122.339 E0.47847
G1 X150.444 Y121.536 E0.48906
G1 X150.443 Y120.481 E0.50295
G1 X150.496 Y119.615 E0.51438
G1 X150.607 Y118.726 E0.52617
G1 X150.92 Y117.25 E0.54604
G1 X151.343 Y115.927 E0.56433
G1 X151.617 Y115.252 E0.57392
G1 X151.989 Y114.456 E0.58549
G1 X152.612 Y113.328 E0.60246
G1 X153.484 Y112.074 E0.62257
G1 X153.973 Y111.481 E0.63269
G1 X154.574 Y110.829 E0.64437
G1 X155.671 Y109.812 E0.66406
G1 X156.722 Y109.008 E0.68149
G1 X157.394 Y108.574 E0.69202
G1 X158.143 Y108.15 E0.70335
G1 X159.429 Y107.541 E0.72209
G1 X160.841 Y107.038 E0.74183
G1 X162.241 Y106.694 E0.76081
G1 X163.665 Y106.491 E0.77975
G1 X164.466 Y106.444 E0.79031
G1 X165.519 Y106.443 E0.80418
G1 X166.385 Y106.496 E0.8156
G1 X167.274 Y106.607 E0.8274
G1 X168.75 Y106.92 E0.84727
G1 X170.073 Y107.343 E0.86556
G1 X170.748 Y107.617 E0.87515
G1 X171.544 Y107.989 E0.88672
G1 X172.672 Y108.612 E0.90369
G1 X173.926 Y109.484 E0.9238
G1 X174.519 Y109.973 E0.93392
G1 X175.171 Y110.574 E0.94559
G1 X176.188 Y111.671 E0.96529
G1 X176.989 Y112.717 E0.98264
G1 X177.425 Y113.393 E0.99323
G1 X177.85 Y114.144 E1.00459
G1 X178.459 Y115.429 E1.02332
G1 X178.962 Y116.841 E1.04305
G1 X179.305 Y118.236 E1.06197
G1 X179.509 Y119.663 E1.08095
G1 X179.556 Y120.464 E1.09152
G1 X179.557 Y121.519 E1.10541
G1 X179.504 Y122.385 E1.11683
G1 X179.393 Y123.274 E1.12863
G1 X179.08 Y124.75 E1.1485
G1 X178.657 Y126.073 E1.16678
G1 X178.383 Y126.748 E1.17638
G1 X178.011 Y127.544 E1.18795
G1 X177.388 Y128.672 E1.20491
M204 S625
M205 X10 Y10
G0 F2571.4 X177.025 Y128.461
M204 S500
M205 X5 Y5
G1 F1200 X176.178 Y129.677 E1.22443
G1 X175.719 Y130.234 E1.23393
G1 X175.118 Y130.886 E1.24561
G1 X174.051 Y131.873 E1.26475
G1 X173.031 Y132.653 E1.28165
G1 X172.399 Y133.06 E1.29155
G1 X171.65 Y133.484 E1.30288
G1 X170.399 Y134.076 E1.32111
G1 X169.028 Y134.563 E1.34027
G1 X167.668 Y134.896 E1.3587
G1 X166.286 Y135.092 E1.37708
G1 X165.533 Y135.136 E1.38701
G1 X164.48 Y135.137 E1.40088
G1 X163.667 Y135.087 E1.4116
G1 X162.778 Y134.976 E1.4234
G1 X161.349 Y134.672 E1.44264
G1 X160.064 Y134.259 E1.46041
G1 X159.429 Y134.003 E1.46943
G1 X158.631 Y133.63 E1.48102
G1 X157.537 Y133.024 E1.49749
G1 X156.323 Y132.178 E1.51698
G1 X155.766 Y131.719 E1.52648
G1 X155.114 Y131.118 E1.53816
G1 X154.126 Y130.051 E1.5573
G1 X153.346 Y129.029 E1.57423
G1 X152.939 Y128.398 E1.58412
G1 X152.514 Y127.647 E1.59548
G1 X151.923 Y126.397 E1.61369
G1 X151.436 Y125.025 E1.63286
G1 X151.104 Y123.668 E1.65125
G1 X150.909 Y122.29 E1.66958
G1 X150.864 Y121.535 E1.67954
G1 X150.863 Y120.48 E1.69343
G1 X150.913 Y119.667 E1.70415
G1 X151.024 Y118.778 E1.71595
G1 X151.328 Y117.349 E1.73519
G1 X151.741 Y116.064 E1.75296
G1 X151.997 Y115.43 E1.76196
G1 X152.369 Y114.634 E1.77353
G1 X152.975 Y113.539 E1.79001
G1 X153.822 Y112.323 E1.80952
G1 X154.281 Y111.766 E1.81903
G1 X154.882 Y111.114 E1.8307
G1 X155.949 Y110.127 E1.84984
G1 X156.969 Y109.347 E1.86675
G1 X157.601 Y108.94 E1.87665
G1 X158.35 Y108.516 E1.88798
G1 X159.601 Y107.924 E1.90621
G1 X160.972 Y107.437 E1.92536
G1 X162.332 Y107.104 E1.9438
G1 X163.714 Y106.908 E1.96218
G1 X164.467 Y106.864 E1.97211
G1 X165.52 Y106.863 E1.98598
G1 X166.333 Y106.913 E1.9967
G1 X167.222 Y107.024 E2.0085
G1 X168.651 Y107.328 E2.02774
G1 X169.936 Y107.741 E2.04551
G1 X170.57 Y107.997 E2.05451
G1 X171.366 Y108.369 E2.06608
G1 X172.461 Y108.975 E2.08256
G1 X173.677 Y109.822 E2.10207
G1 X174.234 Y110.281 E2.11158
G1 X174.886 Y110.882 E2.12325
G1 X175.873 Y111.949 E2.14239
G1 X176.65 Y112.965 E2.15923
G1 X177.06 Y113.6 E2.16919
G1 X177.485 Y114.351 E2.18055
G1 X178.076 Y115.601 E2.19875
G1 X178.563 Y116.972 E2.21791
G1 X178.895 Y118.327 E2.23628
G1 X179.092 Y119.712 E2.2547
G1 X179.136 Y120.465 E2.26463
G1 X179.137 Y121.52 E2.27853
G1 X179.087 Y122.333 E2.28925
G1 X178.976 Y123.222 E2.30105
G1 X178.672 Y124.651 E2.32028
G1 X178.259 Y125.936 E2.33806
G1 X178.003 Y126.57 E2.34706
G1 X177.631 Y127.366 E2.35863
G1 X177.025 Y128.461 E2.37511
M204 S625
M205 X10 Y10
G0 F2571.4 X176.661 Y128.25
M204 S500
M205 X5 Y5
G1 F1200 X175.839 Y129.428 E2.39402
G1 X175.41 Y129.95 E2.40292
G1 X174.809 Y130.602 E2.4146
G1 X173.774 Y131.558 E2.43315
G1 X172.783 Y132.314 E2.44956
G1 X172.192 Y132.695 E2.45882
G1 X171.443 Y133.119 E2.47015
G1 X170.228 Y133.693 E2.48785
G1 X168.898 Y134.163 E2.50642
G1 X167.577 Y134.486 E2.52433
G1 X166.237 Y134.675 E2.54215
G1 X165.533 Y134.716 E2.55143
G1 X164.48 Y134.717 E2.5653
G1 X163.719 Y134.67 E2.57534
G1 X162.83 Y134.559 E2.58713
G1 X161.448 Y134.264 E2.60574
G1 X160.201 Y133.862 E2.62299
G1 X159.607 Y133.622 E2.63143
G1 X158.809 Y133.249 E2.64303
G1 X157.748 Y132.661 E2.659
G1 X156.572 Y131.839 E2.67789
G1 X156.05 Y131.41 E2.68679
G1 X155.398 Y130.809 E2.69846
G1 X154.441 Y129.773 E2.71703
G1 X153.685 Y128.781 E2.73346
G1 X153.305 Y128.191 E2.7427
G1 X152.88 Y127.44 E2.75406
G1 X152.306 Y126.226 E2.77174
G1 X151.836 Y124.895 E2.79033
G1 X151.514 Y123.577 E2.80819
G1 X151.326 Y122.241 E2.82596
G1 X151.284 Y121.535 E2.83527
G1 X151.283 Y120.48 E2.84916
G1 X151.33 Y119.719 E2.8592
G1 X151.441 Y118.83 E2.871
G1 X151.736 Y117.448 E2.88961
G1 X152.138 Y116.201 E2.90686
G1 X152.378 Y115.608 E2.91528
G1 X152.75 Y114.812 E2.92685
G1 X153.339 Y113.75 E2.94284
G1 X154.161 Y112.572 E2.96176
G1 X154.59 Y112.05 E2.97065
G1 X155.191 Y111.398 E2.98233
G1 X156.226 Y110.442 E3.00088
G1 X157.217 Y109.686 E3.01729
G1 X157.808 Y109.305 E3.02655
G1 X158.557 Y108.881 E3.03789
G1 X159.772 Y108.307 E3.05558
G1 X161.102 Y107.837 E3.07415
G1 X162.423 Y107.514 E3.09206
G1 X163.763 Y107.325 E3.10988
G1 X164.467 Y107.284 E3.11916
G1 X165.52 Y107.283 E3.13303
G1 X166.281 Y107.33 E3.14307
G1 X167.17 Y107.441 E3.15487
G1 X168.552 Y107.736 E3.17347
G1 X169.799 Y108.138 E3.19072
G1 X170.392 Y108.378 E3.19915
G1 X171.188 Y108.75 E3.21072
G1 X172.25 Y109.339 E3.22671
G1 X173.428 Y110.161 E3.24562
G1 X173.95 Y110.59 E3.25452
G1 X174.602 Y111.191 E3.26619
G1 X175.558 Y112.226 E3.28475
G1 X176.311 Y113.212 E3.30108
G1 X176.694 Y113.807 E3.3104
G1 X177.119 Y114.558 E3.32176
G1 X177.693 Y115.772 E3.33945
G1 X178.163 Y117.102 E3.35802
G1 X178.485 Y118.418 E3.37586
G1 X178.675 Y119.761 E3.39372
G1 X178.716 Y120.465 E3.403
G1 X178.717 Y121.52 E3.4169
G1 X178.67 Y122.281 E3.42693
G1 X178.559 Y123.17 E3.43873
G1 X178.264 Y124.552 E3.45734
G1 X177.862 Y125.799 E3.47459
G1 X177.622 Y126.392 E3.48301
G1 X177.25 Y127.188 E3.49458
G1 X176.661 Y128.25 E3.51057
M204 S625
M205 X10 Y10
G0 F2571.4 X176.298 Y128.04
M204 S500
M205 X5 Y5
G1 F1200 X175.501 Y129.18 E3.52889
G1 X175.101 Y129.665 E3.53717
G1 X174.5 Y130.317 E3.54884
G1 X173.496 Y131.243 E3.56683
G1 X172.535 Y131.974 E3.58273
G1 X171.985 Y132.329 E3.59135
G1 X171.236 Y132.753 E3.60268
G1 X170.056 Y133.31 E3.61986
G1 X168.767 Y133.764 E3.63786
G1 X167.486 Y134.076 E3.65522
G1 X166.188 Y134.257 E3.67247
G1 X165.532 Y134.296 E3.68113
G1 X164.479 Y134.297 E3.69499
G1 X163.772 Y134.253 E3.70432
G1 X162.883 Y134.142 E3.71612
G1 X161.547 Y133.856 E3.73411
G1 X160.338 Y133.465 E3.75084
G1 X159.785 Y133.242 E3.75869
G1 X158.987 Y132.869 E3.77029
G1 X157.959 Y132.298 E3.78577
G1 X156.82 Y131.501 E3.80408
G1 X156.335 Y131.101 E3.81235
G1 X155.683 Y130.5 E3.82403
G1 X154.756 Y129.495 E3.84203
G1 X154.025 Y128.534 E3.85793
G1 X153.67 Y127.985 E3.86654
G1 X153.245 Y127.234 E3.8779
G1 X152.689 Y126.054 E3.89508
G1 X152.235 Y124.765 E3.91307
G1 X151.924 Y123.486 E3.9304
G1 X151.743 Y122.191 E3.94762
G1 X151.704 Y121.534 E3.95629
G1 X151.703 Y120.479 E3.97018
G1 X151.747 Y119.772 E3.97951
G1 X151.858 Y118.883 E3.9913
G1 X152.144 Y117.547 E4.00929
G1 X152.535 Y116.338 E4.02603
G1 X152.758 Y115.785 E4.03388
G1 X153.13 Y114.989 E4.04545
G1 X153.702 Y113.96 E4.06095
G1 X154.499 Y112.82 E4.07926
G1 X154.899 Y112.335 E4.08754
G1 X155.5 Y111.683 E4.09922
G1 X156.504 Y110.757 E4.1172
G1 X157.465 Y110.026 E4.1331
G1 X158.015 Y109.671 E4.14172
G1 X158.764 Y109.247 E4.15305
G1 X159.944 Y108.69 E4.17023
G1 X161.233 Y108.236 E4.18823
G1 X162.514 Y107.924 E4.20559
G1 X163.812 Y107.743 E4.22285
G1 X164.468 Y107.704 E4.2315
G1 X165.521 Y107.703 E4.24536
G1 X166.228 Y107.747 E4.25469
G1 X167.117 Y107.858 E4.26649
G1 X168.453 Y108.144 E4.28448
G1 X169.662 Y108.535 E4.30121
G1 X170.215 Y108.758 E4.30906
G1 X171.011 Y109.13 E4.32063
G1 X172.04 Y109.702 E4.33613
G1 X173.18 Y110.499 E4.35445
G1 X173.665 Y110.899 E4.36273
G1 X174.317 Y111.5 E4.3744
G1 X175.243 Y112.504 E4.39239
G1 X175.972 Y113.46 E4.40822
G1 X176.329 Y114.013 E4.41688
G1 X176.754 Y114.764 E4.42825
G1 X177.31 Y115.944 E4.44542
G1 X177.764 Y117.233 E4.46342
G1 X178.075 Y118.509 E4.48071
G1 X178.257 Y119.81 E4.49801
G1 X178.296 Y120.466 E4.50666
G1 X178.297 Y121.521 E4.52055
G1 X178.253 Y122.228 E4.52988
G1 X178.142 Y123.117 E4.54168
G1 X177.856 Y124.453 E4.55967
G1 X177.465 Y125.662 E4.5764
G1 X177.242 Y126.215 E4.58425
G1 X176.87 Y127.011 E4.59582
G1 X176.298 Y128.04 E4.61132
M204 S625
M205 X10 Y10
G0 F2571.4 X175.935 Y127.829
M204 S500
M205 X5 Y5
G1 F1200 X175.162 Y128.931 E4.62905
G1 X174.792 Y129.38 E4.63671
G1 X174.191 Y130.032 E4.64838
G1 X173.218 Y130.928 E4.6658
G1 X172.288 Y131.635 E4.68118
G1 X171.778 Y131.964 E4.68917
G1 X171.029 Y132.388 E4.70051
G1 X169.884 Y132.926 E4.71716
G1 X168.636 Y133.365 E4.73458
G1 X167.395 Y133.666 E4.7514
G1 X166.139 Y133.84 E4.76809
G1 X165.532 Y133.876 E4.7761
G1 X164.479 Y133.877 E4.78997
G1 X163.824 Y133.837 E4.79861
G1 X162.935 Y133.726 E4.8104
G1 X161.646 Y133.448 E4.82777
G1 X160.475 Y133.068 E4.84398
G1 X159.963 Y132.861 E4.85125
G1 X159.165 Y132.488 E4.86285
G1 X158.17 Y131.934 E4.87784
G1 X157.069 Y131.162 E4.89555
G1 X156.62 Y130.792 E4.90321
G1 X155.968 Y130.191 E4.91489
G1 X155.071 Y129.217 E4.93232
G1 X154.364 Y128.286 E4.94771
G1 X154.036 Y127.778 E4.95568
G1 X153.611 Y127.027 E4.96704
G1 X153.073 Y125.882 E4.9837
G1 X152.634 Y124.634 E5.00112
G1 X152.334 Y123.395 E5.0179
G1 X152.16 Y122.142 E5.03456
G1 X152.124 Y121.534 E5.04258
G1 X152.123 Y120.479 E5.05647
G1 X152.163 Y119.824 E5.06511
G1 X152.274 Y118.935 E5.07691
G1 X152.552 Y117.646 E5.09427
G1 X152.932 Y116.475 E5.11048
G1 X153.139 Y115.963 E5.11775
G1 X153.511 Y115.167 E5.12932
G1 X154.065 Y114.171 E5.14433
G1 X154.838 Y113.069 E5.16205
G1 X155.208 Y112.62 E5.16972
G1 X155.809 Y111.968 E5.18139
G1 X156.782 Y111.072 E5.19881
G1 X157.712 Y110.365 E5.21419
G1 X158.222 Y110.036 E5.22218
G1 X158.971 Y109.612 E5.23351
G1 X160.116 Y109.074 E5.25017
G1 X161.364 Y108.635 E5.26759
G1 X162.605 Y108.334 E5.28441
G1 X163.861 Y108.16 E5.3011
G1 X164.468 Y108.124 E5.30911
G1 X165.521 Y108.123 E5.32298
G1 X166.176 Y108.163 E5.33162
G1 X167.065 Y108.274 E5.34341
G1 X168.354 Y108.552 E5.36078
G1 X169.525 Y108.932 E5.37699
G1 X170.037 Y109.139 E5.38426
G1 X170.833 Y109.511 E5.39583
G1 X171.829 Y110.065 E5.41083
G1 X172.931 Y110.838 E5.42856
G1 X173.38 Y111.208 E5.43622
G1 X174.032 Y111.809 E5.4479
G1 X174.928 Y112.782 E5.46531
G1 X175.633 Y113.708 E5.48064
G1 X175.963 Y114.22 E5.48866
G1 X176.388 Y114.971 E5.50002
G1 X176.926 Y116.116 E5.51668
G1 X177.365 Y117.364 E5.5341
G1 X177.665 Y118.6 E5.55085
G1 X177.84 Y119.859 E5.56758
G1 X177.876 Y120.466 E5.57559
G1 X177.877 Y121.521 E5.58948
G1 X177.837 Y122.176 E5.59812
G1 X177.726 Y123.065 E5.60992
G1 X177.448 Y124.354 E5.62728
G1 X177.068 Y125.525 E5.64349
G1 X176.861 Y126.037 E5.65076
G1 X176.489 Y126.833 E5.66233
G1 X175.935 Y127.829 E5.67734
M204 S625
M205 X10 Y10
G0 F2571.4 X175.572 Y127.618
M204 S500
M205 X5 Y5
G1 F1200 X174.824 Y128.682 E5.69447
G1 X174.483 Y129.096 E5.70153
G1 X173.882 Y129.748 E5.7132
G1 X172.94 Y130.614 E5.73005
G1 X172.04 Y131.296 E5.74492
G1 X171.571 Y131.598 E5.75227
G1 X170.822 Y132.022 E5.7636
G1 X169.712 Y132.543 E5.77975
G1 X168.506 Y132.966 E5.79657
G1 X167.304 Y133.256 E5.81285
G1 X166.09 Y133.423 E5.82899
G1 X165.532 Y133.456 E5.83635
G1 X164.479 Y133.457 E5.85022
G1 X163.876 Y133.42 E5.85817
G1 X162.987 Y133.309 E5.86997
G1 X161.745 Y133.04 E5.8867
G1 X160.612 Y132.671 E5.90239
G1 X160.141 Y132.481 E5.90908
G1 X159.343 Y132.108 E5.92068
G1 X158.381 Y131.571 E5.93518
G1 X157.318 Y130.824 E5.95229
G1 X156.904 Y130.483 E5.95935
G1 X156.252 Y129.882 E5.97103
G1 X155.386 Y128.939 E5.98789
G1 X154.703 Y128.039 E6.00276
G1 X154.401 Y127.571 E6.0101
G1 X153.976 Y126.82 E6.02146
G1 X153.456 Y125.71 E6.0376
G1 X153.033 Y124.504 E6.05443
G1 X152.744 Y123.304 E6.07068
G1 X152.577 Y122.093 E6.08678
G1 X152.544 Y121.534 E6.09415
G1 X152.543 Y120.479 E6.10804
G1 X152.58 Y119.876 E6.116
G1 X152.691 Y118.987 E6.1278
G1 X152.96 Y117.745 E6.14453
G1 X153.329 Y116.612 E6.16022
G1 X153.519 Y116.141 E6.16691
G1 X153.891 Y115.345 E6.17848
G1 X154.428 Y114.382 E6.19299
G1 X155.176 Y113.318 E6.21012
G1 X155.517 Y112.904 E6.21718
G1 X156.118 Y112.252 E6.22886
G1 X157.06 Y111.386 E6.24571
G1 X157.96 Y110.704 E6.26058
G1 X158.429 Y110.402 E6.26792
G1 X159.178 Y109.978 E6.27925
G1 X160.288 Y109.457 E6.2954
G1 X161.494 Y109.034 E6.31223
G1 X162.696 Y108.744 E6.32851
G1 X163.91 Y108.577 E6.34464
G1 X164.468 Y108.544 E6.352
G1 X165.521 Y108.543 E6.36587
G1 X166.124 Y108.58 E6.37382
G1 X167.013 Y108.691 E6.38562
G1 X168.255 Y108.96 E6.40235
G1 X169.388 Y109.329 E6.41804
G1 X169.859 Y109.519 E6.42473
G1 X170.655 Y109.891 E6.4363
G1 X171.618 Y110.428 E6.45082
G1 X172.682 Y111.176 E6.46795
G1 X173.096 Y111.517 E6.47501
G1 X173.748 Y112.118 E6.48668
G1 X174.614 Y113.06 E6.50353
G1 X175.293 Y113.956 E6.51834
G1 X175.598 Y114.427 E6.52572
G1 X176.023 Y115.178 E6.53709
G1 X176.543 Y116.288 E6.55323
G1 X176.966 Y117.494 E6.57005
G1 X177.255 Y118.691 E6.58627
G1 X177.423 Y119.908 E6.60245
G1 X177.456 Y120.466 E6.60981
G1 X177.457 Y121.521 E6.6237
G1 X177.42 Y122.124 E6.63165
G1 X177.309 Y123.013 E6.64345
G1 X177.04 Y124.255 E6.66018
G1 X176.671 Y125.388 E6.67587
G1 X176.481 Y125.859 E6.68256
G1 X176.109 Y126.655 E6.69413
G1 X175.572 Y127.618 E6.70865
M204 S625
M205 X10 Y10
G0 F2571.4 X175.209 Y127.407
M204 S500
M205 X5 Y5
G1 F1200 X174.486 Y128.434 E6.72519
G1 X174.175 Y128.811 E6.73162
G1 X173.574 Y129.463 E6.7433
G1 X172.662 Y130.299 E6.75959
G1 X171.792 Y130.957 E6.77395
G1 X171.365 Y131.233 E6.78064
G1 X170.616 Y131.657 E6.79198
G1 X169.54 Y132.16 E6.80762
G1 X168.375 Y132.567 E6.82387
G1 X167.214 Y132.846 E6.83959
